assets/misc-grey/MiscGrey33.svg

<svg width="42" height="37" viewBox="0 0 42 37" fill="none" xmlns="http://www.w3.org/2000/svg">
<path fill-rule="evenodd" clip-rule="evenodd" d="M38.79 23.99C38.79 25.37 37.668 26.49 36.29 26.49H5.62402C4.24502 26.49 3.12402 25.37 3.12402 23.99V5.98999C3.12402 4.60999 4.24502 3.48999 5.62402 3.48999H36.29C37.668 3.48999 38.79 4.60999 38.79 5.98999V23.99ZM36.29 0.48999H5.62402C2.59102 0.48999 0.124023 2.95999 0.124023 5.98999V23.99C0.124023 27.03 2.59102 29.49 5.62402 29.49H19.457V33.83H12.79C11.961 33.83 11.29 34.5 11.29 35.33C11.29 36.15 11.961 36.83 12.79 36.83H29.124C29.952 36.83 30.624 36.15 30.624 35.33C30.624 34.5 29.952 33.83 29.124 33.83H22.457V29.49H36.29C39.323 29.49 41.79 27.03 41.79 23.99V5.98999C41.79 2.95999 39.323 0.48999 36.29 0.48999Z" fill="#1A1919"/>
</svg>

<svg xmlns="http://www.w3.org/2000/svg" viewBox="0 0 42 37"><path fill-rule="evenodd" d="M38.79 23.99c0 1.38-1.122 2.5-2.5 2.5H5.624c-1.379 0-2.5-1.12-2.5-2.5v-18c0-1.38 1.121-2.5 2.5-2.5H36.29c1.378 0 2.5 1.12 2.5 2.5v18zM36.29.49H5.624c-3.033 0-5.5 2.47-5.5 5.5v18c0 3.04 2.467 5.5 5.5 5.5h13.833v4.34H12.79c-.829 0-1.5.67-1.5 1.5 0 .82.671 1.5 1.5 1.5h16.334a1.5 1.5 0 100-3h-6.667v-4.34H36.29c3.033 0 5.5-2.46 5.5-5.5v-18c0-3.03-2.467-5.5-5.5-5.5z" clip-rule="evenodd"/></svg>
